X: 311
T: Bert Murray's Hornpipe
C: \251 1995 John Renton
R: hornpipe, reel
B: Bert Murray's "Bon Accord Collection" 1999 p.31
%
Z: 2011 John Chambers <jc:trillian.mit.edu>
M: C
L: 1/8
K: A
(uc>d) |\
e>a aa/a/ (c'a)ed | cdef e2(cA) | Gee^d fe=dB | Acea e2(cd) |
e>a aa/a/ (c'a)ed | cdef e2(cA) | Eee^d fe=dB | A2c2 A2 :|
(uCD) |\
E>A AA/A/ (cA)EC | DFAd B2(FA) | G>B BB/B/ (dB)GB | Acea e2(CD) |
E>A AA/A/ (cA)EC | DFAd B2(FA) | G>B BB/B/ (dB)GB | A2c2 A2(CD) |
E>A AA/A/ (cA)EC | DFAd B2(FA) | G>B BB/B/ (dB)GB | Acea e2(CD) |
E>A AA/A/ (cA)EC | DFAd fdAF | EGBe gedB | A2c2 A2 |]
